X:1
T:Through the Ages Saints Have Wondered
T:Through the Ages Saints Have Wondered
T:Harry Silvernale Mason, 1924
T:Richard W. Adams, 2005
T:© 2005 Richard W. Adams. Reproduce or publish freely for Christian worship or devotions. Courtesy of the Cyber Hymnal™
T:© 2005 Richard W. Adams. Reproduce or publish freely for Christian worship or devotions. Courtesy of the Cyber Hymnal™
C:Harry Silvernale Mason, 1924
Z:© 2005 Richard W. Adams. Reproduce or publish freely for Christian worship or devotions.
Z:Courtesy of the Cyber Hymnal™
%%score ( 1 2 ) ( 3 4 )
L:1/8
Q:1/4=115
M:4/4
K:Ab
V:1 treble 
V:2 treble 
V:3 bass 
V:4 bass 
V:1
 EE | [CE]2 [A,C]2 [EA]3 [EG] | [EG]2 [DF]4 DD | [B,D]2 B,2 [DG]3 [DF] | [CE]6 [CE][CE] | %5
w: 1.~Through the|ag- es saints have|won- dered When the|prom- ised day will|be, When in|
w: 2.~But the|scoff- ers mock the|pro- mise, Walk- ing|in their lust and|pride, Say- ing,|
w: 3.~At the|time ap- point- ed,|an- gels Will the|sil- ver trump- et|peal; In the|
w: 4.~But we|know not of the|ho- ur, When His|pro- mise He will|keep; There- fore|
 [CE]2 C2 [EA]3 [=EG] | [=EG]2 F4 [DF][DF] | [=DF]2 [DF]2 [EG]2 [DA]2 | [DB]8 | [Ec]4 [=Ec]3 [Ec] | %10
w: power and bright- est|glo- ry Our re-|turn- ing Lord we’ll|see;|Search- ing the|
w: “Where, then, is your|sav- ior? No- thing|chang- es— he has|lied.”|Pro- phe- cy|
w: hea- vens shall the|na- tions See the|Son of Man re-|vealed.|Tombs, graves and|
w: must we keep a-|watch- ing, Lest our|Lord find us a-|sleep.|For all will|
 [Fc]2 [Fc]4 [_Gc]2 | [Fd]4 [FA]2 [FB]2 | [Ec]8 | E4 [DF]2 [EG]2 | [EA]4 [Ec]4 | %15
w: Scrip- ture for|signs of the|times:|Plague, earth- quake,|fa- mine,|
w: fails not! He|knew they would|speak|A- gainst His|Word, de-|
w: o- ceans, re-|linq- uish their|hold—|Saints from the|four winds,|
w: see Him, with|scales and a|sword,|Dis- pens- ing|jus- tice,|
 [EB]4 [=Dc]2 [DB]2 | [EB]8 | [Ec]4 [=Ec]3 [Ec] | [Fc]2 [Fc]4 [_Gc]2 | [Fd]4 [FA]2 [FB]2 | [=Ec]6 | %21
w: false Christs and|shrines;|War and com-|mo- tion, and|signs in the|sky;|
w: ceiv- ing the|weak.|Yes, we know|Je- sus is|faith- ful and|true,|
w: now crowned with|gold;|Those mak- ing|mer- ry, now|shak- ing with|dread,|
w: sure as His|Word;|Pre- pare to|meet Him, with|lamp in your|hand,|
 [=Ec]2 | [FB]4 [FA]2 [DF]2 | [CE]4 [Fd]4 | [Ec]2 [FB]2 [EA]2 [DG]2 | [CA]6 |] %26
w: So|lift up your|heads, re-|demp- tion then is|nigh!|
w: Pre-|par- ing our|man- sion,|mak- ing all things|new.|
w: For|He has re-|turned to|judge the quick and|dead.|
w: The|Bride- groom is|com- ing—|rise and greet the|Lamb!|
V:2
 EE | x8 | x6 DD | x8 | x8 | x2 C2 x4 | x2 F4 x2 | x8 | x8 | x8 | x8 | x8 | x8 | E4 x4 | x8 | x8 | %16
 x8 | x8 | x8 | x8 | x6 | x2 | x8 | x8 | x8 | x6 |] %26
V:3
 E,E, | [A,,A,]2 [A,,E,]2 [C,A,]3 [A,,A,] | [D,A,]2 [D,A,]4 [B,,B,][B,,B,] | %3
 [E,G,]2 [E,G,]2 [E,B,]3 [E,G,] | [A,,A,]6 [A,,A,][A,,A,] | [A,,A,]2 [A,,E,]2 [C,A,]3 [C,B,] | %6
 [D,B,]2 [D,A,]4 [D,A,][D,A,] | [B,,B,]2 [B,,B,]2 [G,B,]2 [F,A,]2 | [E,G,]8 | %9
 [A,,A,]4 [C,G,]3 [C,G,] | [F,A,]2 [F,A,]4 [E,A,]2 | [D,A,]4 [D,D]2 [D,A,]2 | [A,,A,]8 | %13
 [G,B,]4 [E,B,]2 [D,B,]2 | [C,A,]4 [A,,A,]4 | [B,,G,]4 [B,,F,]2 [B,,A,]2 | [E,G,]8 | %17
 [A,,A,]4 [C,G,]3 [C,G,] | [F,A,]2 [F,A,]4 [E,A,]2 | [D,D]4 [D,D]2 [D,F,]2 | [C,G,]6 | [C,G,]2 | %22
 [D,D]4 [D,D]2 [D,A,]2 | [A,,A,]4 [B,,G,]4 | [C,A,]2 [D,D]2 [E,C]2 [E,B,]2 | [A,,A,]6 |] %26
V:4
 E,E, | x8 | x8 | x8 | x8 | x8 | x8 | x8 | x8 | x8 | x8 | x8 | x8 | x8 | x8 | x8 | x8 | x8 | x8 | %19
 x8 | x6 | x2 | x8 | x8 | x8 | x6 |] %26

